X: 30
T:Fergie Tractor, The
M:3/8
L:1/8
Q:70
K:C
cB|"Am"AAA|e<e e>e|"G"d2d|"C"c3-|c cd|eee|e<c d|e2e|!
"G"d3-|d gg|g2g|g2e|"F"fff|fd2-|d2f|"C"eee|ece|"G"d2d|"C"dcz|!
"Chorus:"c2d|"C"eee|e2c|"G"Bd2-|d2e|f2f|fed|"C"ec2-|c ef|g2g|g2e|!
"F"f2f|a3-|a de|fff|fed|"C"eg2-|g2f|eee|"G"e2c|"C"dc2|z3|z:||
